X:1
T:Concerto for two oboes in D Minor, RV 535
T:Concerto for two oboes in D Minor, RV 535
T:II. Allegro
T:Vivaldi/arr. L. Cataldi
C:Vivaldi
Z:arr. Twiston Davies
%%score { ( 1 2 ) | ( 3 4 ) }
L:1/8
Q:1/4=120
M:4/4
K:F
V:1 treble nm="Piano" snm="Pno."
V:2 treble 
V:3 bass 
V:4 bass 
V:1
"^(c.)" d^c/d/ Af (f2 e)c | d^c/d/ Af f2 ea | fedb f2 e2 | D^C/D/ A,F F2 EC | D^C/D/ A,F F2 EA | %5
 FEDB F2 E2 | [fa] [fa]2 [eg] [df] [df]2 [ce] | [Bd] [Bd]2 [Ac] [B,DGB] [B,DGB]2 [B,FA] | %8
 [B,EG] [B,EG]2 [B,DF] [=B,E] [B,E]2 [^G,B,D] | a/g/a/b/ a/g/f/e/ f f2 f | %10
 g/f/g/a/ g/f/e/d/ e e2 e | f/e/f/g/ f/e/d/c/ [df]/[eg]/[fa]/[eg]/ [df]/[ce]/[=Bd]/[Ac]/ | %12
 ^G/e/f/e/ f/e/f/e/ a/e/f/e/ f/e/f/e/ | a/e/d/c/ T=B>A A2 z e | a^g/a/ ec' c'2 =bg | %15
 a^g/a/ ec' c'2 =bb | a3 c c2 =B2 | A^G/A/ Ec c2 =BG | A^G/A/ Ec c2 =BB | C[=B,D][A,E]F A2 ^Ge | %20
 (b2 a/)g/^f/e/ fedf | (a2 g/)f/e/d/ edce | (g2 f/)_e/d/c/ dcBd | %23
 (f2 e/)d/c/B/ BA z/ [FA]/[GB]/[FA]/ | ([Bd]2 [Bd]/)[Ac]/[Bd]/[Ac]/ ([df]2 [df]/)[ce]/[df]/[ce]/ | %25
 ([fa]2 [fa]/)[eg]/[fa]/[eg]/ [gb]3 a/g/ | [ca][Bg]/[Af]/ [Ge]>[Ff] fe/f/ ca | (a2 g)e fe/f/ ca | %28
 (a2 g)c' agfd' | ([fa]2 [eg]2) [Ac] [Ac]2 [gb] | [fa] [fa]2 [_eg] [df] [df]2 [ce] | %31
 [FBd] [FBd]2 [ac'] [gb] [gb]2 [fa] | [dg] [dg]2 [df] [ce][ce][gb][gb] | %33
 [gb][fa]/[eg]/ [fa][fa] [eg]2 z2 | [GB][FA]/[EG]/ [FA][FA] z [ce][gb][gb] | %35
 ag/f/ ge fd ^f/a/g/f/ | g/b/a/g/ a/c'/b/a/ ba g2- | gf/_e/ da ba g2- | gf/_e/ d^f gg TA2 | %39
 g^f/g/ db b2 af | g^f/g/ db b2 aa | g3 B B2 A2 | d/c/d/_e/ d/c/B/A/ B B2 B | %43
 c/B/c/d/ c/B/A/G/ A A2 A | [Bd][Bb][Bd][Ac] B2 z [Bd]/[c_e]/ | %45
 [df]/[c_e]/[df] z [eg]/[df]/ [ce]/[Bd]/[ce] z [df]/[ce]/ | %46
 [Bd]/[Ac]/[Bd] z [c_e]/[Bd]/ [Ac]/[GB]/[Ac] z [df]/[eg]/ | %47
 [fa]/[eg]/[fa] z [gb]/[fa]/ [eg]/[df]/[eg] z [fa]/[eg]/ | %48
 [df]/[^ce]/[df] z [eg]/[df]/ [ce]/[=Bd]/[ce] [eg]/[df]/[eg] | [df]^c/d/ Af (f2 e)c | %50
 d^c/d/ Af f2 ea | fedb f2 e2 | a/g/a/b/ a/g/f/e/ f f2 f | g/f/g/a/ g/f/e/d/ e e2 e | %54
 f/e/f/g/ f/e/d/c/ d d2 d | e/d/e/f/ e/d/^c/=B/ [Ac]A z [ce] | %56
 [df]/[eg]/[fa] z [df] [^ce]/[df]/[eg] z [ce] | [df]/[eg]/[fa] z [df] [df][^ce] z2 | %58
 [fa] [fa]2 [eg] [df] [df]2 [ce] | [Bd] [Bd]2 [Ac] [B,DGB] [B,DGB]2 [B,FA] | %60
 [B,EG] [B,EG]2 [B,DF] [E,=B,E] [B,E]2 [B,D] | z e a3 g/f/ e>d | dD A3 G/F/ TE>D | %63
 D[DF][EG][^CE] [DF][DF][EG][CE] | D8 |] %65
V:2
 FEDd d2 ^cA | FEDd d2 ^ce | d2 x f d2 ^c2 | x4 D2 ^CA, | x4 [A,D]2 [A,^C][CE] | D2 x F D2 ^C2 | %6
 x8 | x8 | x8 | ee^cc d/=c/d/e/ d/c/B/A/ | dddd c/B/c/d/ c/B/A/G/ | cccc x4 | =B2 z2 z4 | %13
 cAE^G E2 z2 | c=BAa a2 ^ge | c=BAa a2 ^ge | c=BAf A2 ^G2 | C[=B,D]A,[EA] [EA]2 [E^G][B,E] | %18
 C[=B,D]A,[EA] [EA]2 [E^G][B,E] | A,3 C [CE]2 [=B,E]2 | x8 | x8 | x8 | x8 | x8 | x7 e | %26
 x4 [FA]GFf | f2 ec AGFf | f2 eg f3 a | x8 | x8 | x8 | x8 | z4 z [EG][GB][GB] | x4 [EG]2 z2 | %35
 e e2 ^c Ad =c2 | B g2 ^f gc d2 | _e2 A^f gc d2 | _e2 Ac cG ^F2 | [GB]AGg g2 ^fd | BAGg g2 ^fd | %41
 BAG_e G2 ^F2 | A A2 ^F G/=F/G/A/ G/F/_E/D/ | G G2 _E F/E/F/G/ F/E/D/C/ | x8 | x8 | x8 | x8 | x8 | %49
 FEDd d2 ^cA | FEDd d2 ^ce | d3 f d2 ^c2 | ee^cc d/=c/d/e/ d/c/B/A/ | dddd c/=B/c/d/ c/B/A/G/ | %54
 cccc B/A/B/c/ B/A/G/F/ | BBBB z4 | x8 | x8 | x8 | x8 | x8 | [A,^C]2 z e fe/d/ ^c>d | %62
 x2 z E FE/D/ ^C>D | x8 | x8 |] %65
V:3
 D,E,F,D, A,G,A,A,, | D,E,F,D, A,G,A,A,, | D,E,F,G, A,G,A,A,, | F,G, A,2 A,2 A,E, | %4
 F,G, A,2 A,G,A,A,, | A,G,A,B, A,2 A,2 | D,DDD, D,DDD, | D,DDD, G,,G,G,G,, | %8
 G,,G,G,G,, ^G,,^G,G,G,, | [A,^CE] [CE]2 A,, D,DDD, | G,,G,G,G,, C,CCC, | F,,F,F,F,, D,,D,D,D,, | %12
 E,,2 z2 A,,2 z2 | A,,D,E,E,, A,,=B,,C,B,, | A,,=B,,C,A,, E,D,E,E,, | A,,=B,,C,A,, E,D,E,E,, | %16
 A,,=B,,C,D, E,D,E,E,, | A,,=B,,C,A,, E,D,E,E,, | A,,=B,,C,A,, E,D,E,E,, | %19
 A,,=B,,C,D, E,D,E,[E,,E,] | ^CCCC =CCCC | =B,B,B,B, _B,B,B,B, | A,A,A,A, _A,A,A,A, | %23
 G,G,G,G, F,F,F,F, | F,F,F,F, F,F,F,F, | F,F,F,F, E,E,E,E, | F,F,C,C, A,B, C2 | C2 CG, A,B, C2 | %28
 C2 CG, A,B,CD | C2 C2 F,,F,F,F,, | F,,F,F,F,, F,,F,F,F,, | z2 z F D D2 D | =B,,=B,B,B,, C,CCC, | %33
 C,CCC, C,CCC, | C,CCC, C,CC^C, | ^C,^CCC, D,DDD, | G,,G,DD, G,A,B,G, | C,C^F,D, G,A,B,G, | %38
 C,C^F,D, G,G,,D,D,, | B,C D2 D2 DA, | B,C D2 D2 DA, | B,CD_E D2 D2 | z4 B, B,2 B, | %43
 G, G,2 G, F,F,F,F, | F,F,F,F, B,,B,/A,/ B,B,, | B,,B,/A,/ B,B,, C,F,/E,/ F,A,, | %46
 B,,B,/A,/ B,_E, F,A,/G,/ F,D, | D,D/^C/ DD, E,A,/G,/ A,A,, | D,D/^C/ DD, A,,A,A,A,, | %49
 F,G, A,2 A,2 A,E, | F,G, A,2 A,2 A,^C | A,G,A,B, A,2 A,2 | B,,A,A,B,, F F2 F | D D2 G G G2 E | %54
 C C2 F F F2 D | B, B,2 B, A,2 A,A,, | D,,D,/^C,/ D,D,, A,,A,/G,/ A,A,, | %57
 D,,D,/^C,/ D,D,, A,,A,/G,/ A,A,, | D,DDD, D,DDD, | D,DDD, G,,G,G,G,, | G,,G,G,G,, ^G,,G,G,G,, | %61
 [A,,E,][E,A,]^CB, DG,A,A,, | D,E,F,^C, D,G,A,A,, | D,D,G,,A,, D,D,G,,A,, | D,,8 |] %65
V:4
 x8 | x8 | x8 | D,E,[D,F,][D,B,] A,G,A,A,, | D,E,[D,F,][D,B,] x4 | D,E,F,G, A,G,A,A,, | x8 | x8 | %8
 x8 | A,,A,A, x5 | x8 | x8 | x8 | x8 | x8 | x8 | x8 | x8 | x8 | x8 | x8 | x8 | x8 | x8 | x8 | x8 | %26
 x4 F,G,A,F, | CB,CC, F,G,A,F, | CB,CC, F,G,A,B, | CB,CC, x4 | x8 | B,,B,B,B,, B,,B,B,B,, | x8 | %33
 x8 | x8 | x8 | x8 | x8 | x8 | G,,A,,B,,G,, D,C,D,D,, | G,,A,,B,,G,, D,C,D,D,, | %41
 G,,A,,B,,C, D,C,D,D,, | ^F,F,F,F, G,G,G,G, | C,C,C,C, x4 | B,,B,,F,B,, F,2 z2 | x8 | x8 | x8 | %48
 x8 | D,E,F,D, A,G,A,A,, | D,E,F,D, A,G,A,A,, | D,E,F,G, A,G,A,A,, | x4 D,DDD, | %53
 G,,G,G,G,, C,CCC, | F,,F,F,F,, B,,B,B,B,, | E,,E,E,E,, z4 | x8 | x8 | x8 | x8 | x8 | x8 | x8 | %63
 x8 | x8 |] %65

